!!!!SEGMENT: pl-wn--sd-xvi-o-238_anonim--kancjonal-zamoyskich-spiewanie-kosciola-krzyzu-swiety-i-chwalebny.krn
!!!cenid: 15xx:796
!!!COM: Anonim
!!!COM-rismID: pe30004985
!!!CDT:
!!!CNT:
!!!OTL: Kancjonał Zamoyskich
!!!PDT: 1558
!!!AGN:
!!!SMS-siglum: PL-Wn
!!!SMS-shelfmark: SD XVI.O.238
!!!SMS-shelfwork: W
!!!SMS-variant:
!!!SMS-altvar:
!!!NIFC-rismSourceID: 990072525
!!!NIFC-rismChildID: 990072525
!!!NIFC-islandoraID: none
!!!URL-pdf-islandora:
!!!URL-scan: https://polona2.pl/item/spiewanie-kosciola-s-krzescianskiego-o-swietym-krzyzu-jako-te-panskiego-zwyciestwa,MTE3MDU2MQ/3 @EN{Scan on Polona} @PL{Skany w portalu Polona}
!!!IIIF: https://polona2.pl/iiif/item/MTE3MDU2MQ/manifest.json
!!!ONB-nifc: UWAGA: proszę zapisywać tylko teksty występujące bezpośrednio pod nutami
!!!AIN: 1 alto 1 bass 1 soprn 1 tenor
!!!key: d:dor
**kern	**text	**mod-text	**kern	**text	**mod-text	**kern	**text	**mod-text	**kern	**text	**mod-text
*part4	*part4	*part1	*part3	*part3	*part1	*part2	*part2	*part1	*part1	*part1	*part1
*staff4	*staff4	*staff1	*staff3	*staff3	*staff1	*staff2	*staff2	*staff1	*staff1	*staff1	*staff1
*I"BASVS.	*	*	*I"TENOR.	*	*	*I"ALT.	*	*	*I"CANTVS.	*	*
*mI"Basso	*	*	*mI"Tenore	*	*	*mI"Alto	*	*	*mI"Soprano	*	*
*I'B	*	*	*I'T	*	*	*I'A	*	*	*I'S	*	*
*Ibass	*	*	*Itenor	*	*	*Ialto	*	*	*Isoprn	*	*
*ICvox	*	*	*ICvox	*	*	*ICvox	*	*	*ICvox	*	*
*clefF4	*	*	*clefC4	*	*	*clefC3	*	*	*clefC1	*	*
*	*	*	*mclefGv2	*	*	*mclefGv2	*	*	*mclefG2	*	*
*k[]	*	*	*k[]	*	*	*k[]	*	*	*k[]	*	*
*d:dor	*	*	*d:dor	*	*	*d:dor	*	*	*d:dor	*	*
*M2/1	*	*	*M2/1	*	*	*M2/1	*	*	*M2/1	*	*
*met(C|)	*	*	*met(C|)	*	*	*met(C|)	*	*	*met(C|)	*	*
*mmet(c|)	*	*	*mmet(c|)	*	*	*mmet(c|)	*	*	*mmet(c|)	*	*
=1-	=1-	=1-	=1-	=1-	=1-	=1-	=1-	=1-	=1-	=1-	=1-
*xywh-#6:2749,339,2257,737	*	*	*xywh-#6:778,426,1905,657	*	*	*xywh-#7:821,400,1826,771	*	*	*xywh-#5:2789,279,2098,969	*	*
0D	Krǯy-	Krzy-	0D	Krǯy-	Krzy-	0A	Krʒy-	Krzy-	0d	Krʒy-	Krzy-
=2-	=2-	=2-	=2-	=2-	=2-	=2-	=2-	=2-	=2-	=2-	=2-
*	*	*	*	*	*	*lig	*	*	*	*	*
1C	.	.	1E	.	.	1G	.	.	1g	.	.
*	*	*	*lig	*	*	*	*	*	*lig	*	*
1C	-ǯu	-żu	1G	-ʒu	-żu	1c	.	.	1e	-ǯu	-żu
*	*	*	*	*	*	*Xlig	*	*	*	*	*
=3-	=3-	=3-	=3-	=3-	=3-	=3-	=3-	=3-	=3-	=3-	=3-
0D	ſwię-	świę-	1A	.	.	2A/	-ʒu	-żu	1f	.	.
.	.	.	.	.	.	2.A/	ſwię-	świę-	.	.	.
*	*	*	*Xlig	*	*	*	*	*	*Xlig	*	*
.	.	.	1A	ſwię-	świę-	.	.	.	1f	ſwię-	świę-
.	.	.	.	.	.	4G/	.	.	.	.	.
.	.	.	.	.	.	4A/	.	.	.	.	.
.	.	.	.	.	.	4B/	.	.	.	.	.
=4-	=4-	=4-	=4-	=4-	=4-	=4-	=4-	=4-	=4-	=4-	=4-
0C	-ty	-ty	0G	-ty	-ty	0c	-ty	-ty	0e	-ty	-ty
=5-	=5-	=5-	=5-	=5-	=5-	=5-	=5-	=5-	=5-	=5-	=5-
0F	i	i	0A	y	i	1.c	y	i	0a	y	i
.	.	.	.	.	.	2d\	.	.	.	.	.
=6-	=6-	=6-	=6-	=6-	=6-	=6-	=6-	=6-	=6-	=6-	=6-
1E	chwá-	chwa-	1B	chwá-	chwa-	1e	.	.	1g	.	.
*	*	*	*	*	*	*	*	*	*lig	*	*
1AA	.	.	1c	.	.	1e	chwa-	chwa-	1a	chwá-	chwa-
=7-	=7-	=7-	=7-	=7-	=7-	=7-	=7-	=7-	=7-	=7-	=7-
1E	-le-	-le-	1B	-le-	-le-	1c	.	-le-	1b	.	.
*	*	*	*	*	*	*	*	*	*Xlig	*	*
1F	.	.	1A	.	.	1d	-le-	.	1cc	-le-	-le-
=8-	=8-	=8-	=8-	=8-	=8-	=8-	=8-	=8-	=8-	=8-	=8-
!	!	!	!LO:SIC:s=0G#i	!	!	!	!	!	!	!	!
0E	-bny.	-bny	0G;	-bny/	-bny	0e	-bny.	-bny	0bl	-bny._etc.	-bny
*custos:F	*	*	*custos:c	*	*	*	*	*	*custos:a	*	*
!LO:LB:g=original	!	!	!LO:LB:g=original	!	!	!LO:LB:g=original	!	!	!LO:LB:g=original	!	!
=9-	=9-	=9-	=9-	=9-	=9-	=9-	=9-	=9-	=9-	=9-	=9-
*xywh-#6:2743,1026,1871,414	*	*	*xywh-#6:807,1050,1860,408	*	*	*xywh-#7:843,1160,1814,397	*	*	*xywh-#5:2778,1199,1803,442	*	*
1.F	.	drze-	1c	.	drze-	1c	.	drze-	1a	.	drze-
.	.	.	1c	.	-wo	2A/	.	.	1a	.	-wo
2E\	.	.	.	.	.	1c\	.	.	.	.	.
=10-	=10-	=10-	=10-	=10-	=10-	=10-	=10-	=10-	=10-	=10-	=10-
*	*	*	*	*	*	*	*	*	*lig	*	*
1D	.	.	1d	.	prze-	.	.	.	1f	.	prze-
.	.	.	.	.	.	2B/	.	.	.	.	.
1C	.	-wo	1e	.	-na-	1c	.	-wo	1g	.	.
*	*	*	*	*	*	*	*	*	*Xlig	*	*
=11-	=11-	=11-	=11-	=11-	=11-	=11-	=11-	=11-	=11-	=11-	=11-
*	*	*	*lig	*	*	*	*	*	*	*	*
1F	.	prze-	1A	.	-śla-	1c	.	prze-	1a	.	-na-
2G\	.	.	1G	.	.	2B/	.	-na-	1b	.	-śla-
2E\	.	-na-	.	.	.	1e\	.	-śla-	.	.	.
*	*	*	*Xlig	*	*	*	*	*	*	*	*
=12-	=12-	=12-	=12-	=12-	=12-	=12-	=12-	=12-	=12-	=12-	=12-
2A\	.	-śla-	1c	.	-chet-	.	.	.	2cc\	.	-chet-
2F\	.	-chet-	.	.	.	4c/	.	-chet-	1a	.	-niej-
.	.	.	.	.	.	4d\	.	.	.	.	.
1E	.	-niej-	1B	.	-niej-	1e	.	-niej-	.	.	.
!	!	!	!	!	!	!	!	!	!LO:SIC:s=2g#i	!	!
.	.	.	.	.	.	.	.	.	2g/	.	.
=13-	=13-	=13-	=13-	=13-	=13-	=13-	=13-	=13-	=13-	=13-	=13-
!!LO:MO:ori
!LO:TX:t=P:problem:zbędne powtórzenie w A	!	!	!LO:TX:t=P:problem:zbędne powtórzenie w A	!	!	!LO:TX:t=P:problem:zbędne powtórzenie	!	!	!LO:TX:t=P:problem:zbędne powtórzenie w A	!	!
1ryy	.	.	1ryy	.	.	1e	.	.	1ryy	.	.
!!LO:MO:end
!	!	!	!	!	!	!LO:SIC:s=1c;	!	!	!LO:SIC:s=1a;	!	!
!LO:N:vis=0	!	!	!LO:N:vis=0	!	!	!LO:N:vis=0	!	!	!LO:N:vis=0	!	!
1AA;	.	-sze	1A;	.	-sze	1c	.	-sze	1a	.	-sze
*custos:A	*	*	*custos:A	*	*	*	*	*	*custos:cc	*	*
!LO:LB:g=original	!	!	!LO:LB:g=original	!	!	!LO:LB:g=original	!	!	!LO:LB:g=original	!	!
=14-	=14-	=14-	=14-	=14-	=14-	=14-	=14-	=14-	=14-	=14-	=14-
*xywh-#6:2732,1423,1831,476	*	*	*xywh-#6:829,1430,1848,465	*	*	*xywh-#7:855,1523,1797,431	*	*	*xywh-#5:2756,1601,1803,442	*	*
2.A\	.	li-	1A	.	li-	1e	.	li-	1cc	.	li-
4G\	.	.	.	.	.	.	.	.	.	.	.
*	*	*	*lig	*	*	*	*	*	*	*	*
!LO:TX:t=P:problem:brak półnuty 2F w źródle	!	!	!	!	!	!	!	!	!	!	!
2Fyy	.	.	1A	.	-ście	1c	.	.	1cc	.	-ście
2E\	.	.	.	.	.	.	.	.	.	.	.
=15-	=15-	=15-	=15-	=15-	=15-	=15-	=15-	=15-	=15-	=15-	=15-
1F	.	-ście	1c	.	.	2f\	.	-ście	1a	.	mi-
.	.	.	.	.	.	1c	.	mi-	.	.	.
*	*	*	*Xlig	*	*	*	*	*	*	*	*
1G	.	mi-	1G	.	mi-	.	.	.	1d	.	.
.	.	.	.	.	.	2B/	.	.	.	.	.
=16-	=16-	=16-	=16-	=16-	=16-	=16-	=16-	=16-	=16-	=16-	=16-
0C	.	-łe	0G	.	-łe	0c	.	-łe	0e	.	-łe
=17-	=17-	=17-	=17-	=17-	=17-	=17-	=17-	=17-	=17-	=17-	=17-
1D	.	kwie-	1A	.	kwie-	1A	.	kwie-	1f	.	kwie-
*lig	*	*	*lig	*	*	*	*	*	*	*	*
1D	.	-cie	1F	.	.	2A/	.	-cie	1a	.	.
.	.	.	.	.	.	1d\	.	.	.	.	.
=18-	=18-	=18-	=18-	=18-	=18-	=18-	=18-	=18-	=18-	=18-	=18-
*	*	*	*	*	*	*	*	*	*lig	*	*
1E	.	.	1E	.	.	.	.	.	1g	.	-cie
.	.	.	.	.	.	2c/	.	.	.	.	.
*	*	*	*Xlig	*	*	*	*	*	*	*	*
*Xlig	*	*	*lig	*	*	*	*	*	*	*	*
1F	.	.	1D	.	-cie	1d	.	.	1f	.	.
*	*	*	*	*	*	*	*	*	*Xlig	*	*
=19-	=19-	=19-	=19-	=19-	=19-	=19-	=19-	=19-	=19-	=19-	=19-
1.C	.	pię-	1E	.	.	1G	.	.	1.e	.	pię-
*	*	*	*Xlig	*	*	*lig	*	*	*	*	*
*	*	*	*lig	*	*	*	*	*	*	*	*
.	.	.	1E	.	pię-	1G	.	pię-	.	.	.
4BB/	.	.	.	.	.	.	.	.	4d/	.	.
4AA/	.	.	.	.	.	.	.	.	4c/	.	.
=20-	=20-	=20-	=20-	=20-	=20-	=20-	=20-	=20-	=20-	=20-	=20-
1D	.	.	1F	.	.	1A	.	.	1d	.	.
*	*	*	*Xlig	*	*	*Xlig	*	*	*	*	*
!	!	!	!LO:SIC:s=0E	!	!	!	!	!	!	!	!
0AA	.	-kne	0E;	.	-kne	0A	.	-kne	[1cl	.	-kne
=21-	=21-	=21-	=21-	=21-	=21-	=21-	=21-	=21-	=21-	=21-	=21-
.	.	.	.	.	.	.	.	.	1c]	.	.
*xywh-#6:2743,1876,1826,465	*	*	*xywh-#6:835,1861,1860,482	*	*	*xywh-#7:821,1874,1883,442	*	*	*xywh-#5:2756,1970,1792,402	*	*
*custos:D	*	*	*custos:D	*	*	*	*	*	*	*	*
!LO:LB:g=original	!	!	!LO:LB:g=original	!	!	!LO:LB:g=original	!	!	!LO:LB:g=original	!	!
2.D/	.	ga-	1D	.	ga-	1A	.	ga-	1f	.	ga-
4C/	.	.	.	.	.	.	.	.	.	.	.
=22-	=22-	=22-	=22-	=22-	=22-	=22-	=22-	=22-	=22-	=22-	=22-
*	*	*	*lig	*	*	*lig	*	*	*lig	*	*
1BB	.	.	1D	.	-łą-	1d	.	-łą-	1f	.	-łą-
1AA	.	.	1A	.	.	1c	.	.	1e	.	.
*	*	*	*Xlig	*	*	*Xlig	*	*	*Xlig	*	*
=23-	=23-	=23-	=23-	=23-	=23-	=23-	=23-	=23-	=23-	=23-	=23-
*	*	*	*lig	*	*	*lig	*	*	*lig	*	*
1D	.	-łą-	1A	.	-zki	1A	.	-zki	1f	.	-zki
1E	.	-zki	1G	.	.	1B	.	.	1g	.	.
*	*	*	*Xlig	*	*	*Xlig	*	*	*Xlig	*	*
=24-	=24-	=24-	=24-	=24-	=24-	=24-	=24-	=24-	=24-	=24-	=24-
*	*	*	*lig	*	*	*	*	*	*lig	*	*
1C	.	wdzię-	1E	.	wdzię-	1c	.	wdzię-	1g	.	wdzię-
*lig	*	*	*	*	*	*	*	*	*	*	*
1D	.	-cznie	1D	.	.	1A	.	.	1f	.	.
*	*	*	*Xlig	*	*	*	*	*	*Xlig	*	*
=25-	=25-	=25-	=25-	=25-	=25-	=25-	=25-	=25-	=25-	=25-	=25-
1C	.	.	1E	.	-cznie	1G	.	-cznie	1e	.	-cznie
*Xlig	*	*	*	*	*	*	*	*	*	*	*
2D/	.	roz-	1F	.	roz-	2A/	.	roz-	2d/	.	roz-
2BB/	.	.	.	.	.	4F/	.	-bi-	1d	.	-bi-
.	.	.	.	.	.	4G/	.	.	.	.	.
=26-	=26-	=26-	=26-	=26-	=26-	=26-	=26-	=26-	=26-	=26-	=26-
*	*	*	*	*	*	*lig	*	*	*	*	*
1AA	.	-bi-	1E	.	-bi-	1A	.	-te	.	.	.
!	!	!	!	!	!	!	!	!	!LO:SIC:s=2c#i	!	!
.	.	.	.	.	.	.	.	.	2c/	.	.
!LO:SIC:s=0D	!	!	!LO:SIC:s=[1D	!	!	!	!	!	!	!	!
0D;	.	-te	[1Dl;	.	-te	0F	.	.	0d	.	-te
*	*	*	*	*	*	*Xlig	*	*	*	*	*
=27-	=27-	=27-	=27-	=27-	=27-	=27-	=27-	=27-	=27-	=27-	=27-
.	.	.	1D]	.	.	.	.	.	.	.	.
*xywh-#6:2753,2324,1820,448	*	*	*xywh-#6:869,2320,1809,459	*	*	*xywh-#7:792,2249,1866,391	*	*	*xywh-#5:2763,2328,1786,414	*	*
*custos:D	*	*	*custos:A	*	*	*custos:d	*	*	*custos:f	*	*
!LO:LB:g=original	!	!	!LO:LB:g=original	!	!	!LO:LB:g=original	!	!	!LO:LB:g=original	!	!
1D	.	o-	1A	.	o-	1d	.	o-	1f	.	o-
=28-	=28-	=28-	=28-	=28-	=28-	=28-	=28-	=28-	=28-	=28-	=28-
*	*	*	*lig	*	*	*lig	*	*	*	*	*
1D	.	-woc	1A	.	-woc	1d	.	-woc	1f	.	-woc
2.C/	.	słod-	1c	.	.	1.e	.	.	1.g	.	słod-
4D/	.	.	.	.	.	.	.	.	.	.	.
*	*	*	*Xlig	*	*	*	*	*	*	*	*
=29-	=29-	=29-	=29-	=29-	=29-	=29-	=29-	=29-	=29-	=29-	=29-
2E\	.	.	1G	.	słod-	.	.	.	.	.	.
*	*	*	*	*	*	*Xlig	*	*	*	*	*
2D/	.	.	.	.	.	4d\	.	.	2a\	.	.
.	.	.	.	.	.	4c/	.	.	.	.	.
0E	.	.	0G	.	-ki	0B	.	.	0b	.	.
=30-	=30-	=30-	=30-	=30-	=30-	=30-	=30-	=30-	=30-	=30-	=30-
.	.	.	.	.	.	.	.	.	.	.	.
1.F	.	-ki	1A	.	a	2A/	.	słod-	1cc	.	-ki
.	.	.	.	.	.	2d\	.	-ki	.	.	.
=31-	=31-	=31-	=31-	=31-	=31-	=31-	=31-	=31-	=31-	=31-	=31-
*	*	*	*lig	*	*	*	*	*	*lig	*	*
.	.	.	1F	.	.	2f\	.	a	1a	.	a
4E\	.	.	.	.	.	1d\	.	.	.	.	.
4D/	.	.	.	.	.	.	.	.	.	.	.
1C	.	.	1E	.	.	.	.	.	1g	.	.
.	.	.	.	.	.	2c/	.	.	.	.	.
*	*	*	*Xlig	*	*	*	*	*	*Xlig	*	*
=32-	=32-	=32-	=32-	=32-	=32-	=32-	=32-	=32-	=32-	=32-	=32-
*	*	*	*lig	*	*	*	*	*	*lig	*	*
1F	.	a	1D	.	wy-	1d	.	.	1f	.	wy-
1G	.	.	1E	.	.	1B	.	.	1e	.	.
*	*	*	*Xlig	*	*	*	*	*	*Xlig	*	*
=33-	=33-	=33-	=33-	=33-	=33-	=33-	=33-	=33-	=33-	=33-	=33-
*	*	*	*lig	*	*	*	*	*	*lig	*	*
2E\	.	wy-	1E	.	-bor-	2B/	.	wy-	1g	.	-bor-
2C/	.	.	.	.	.	2e\	.	.	.	.	.
*lig	*	*	*	*	*	*lig	*	*	*	*	*
1D	.	-bor-	1F	.	.	1A	.	-bor-	1a	.	.
*	*	*	*Xlig	*	*	*	*	*	*Xlig	*	*
=34-	=34-	=34-	=34-	=34-	=34-	=34-	=34-	=34-	=34-	=34-	=34-
!	!	!	!LO:SIC:s=0.E	!	!	!	!	!	!	!	!
1E	.	.	0.El;	.	-ny	1B	.	.	1g	.	.
*Xlig	*	*	*	*	*	*Xlig	*	*	*	*	*
0C	.	-ny	.	.	.	0c	.	-ny	0g	.	-ny
=35-	=35-	=35-	=35-	=35-	=35-	=35-	=35-	=35-	=35-	=35-	=35-
.	.	.	.	.	.	.	.	.	.	.	.
*xywh-#6:2735,2755,1831,635	*	*	*xywh-#6:863,2763,1831,493	*	*	*xywh-#7:781,2611,1900,567	*	*	*xywh-#5:2746,2703,1775,493	*	*
*custos:D	*	*	*custos:D	*	*	*custos:A	*	*	*	*	*
!LO:LB:g=original	!	!	!LO:LB:g=original	!	!	!LO:LB:g=original	!	!	!LO:LB:g=original	!	!
1.D	.	w_sa-	1D	.	w_sa-	1A	.	w_sa-	1f	.	w_sa-
=36-	=36-	=36-	=36-	=36-	=36-	=36-	=36-	=36-	=36-	=36-	=36-
*	*	*	*lig	*	*	*lig	*	*	*lig	*	*
.	.	.	1D	.	-dziech	1d	.	-dziech	1f	.	-dziech
4C/	.	.	.	.	.	.	.	.	.	.	.
4BB/	.	.	.	.	.	.	.	.	.	.	.
1AA	.	.	1A	.	.	1c	.	.	1e	.	.
*	*	*	*Xlig	*	*	*Xlig	*	*	*Xlig	*	*
=37-	=37-	=37-	=37-	=37-	=37-	=37-	=37-	=37-	=37-	=37-	=37-
*	*	*	*lig	*	*	*	*	*	*	*	*
1D	.	-dziech	1A	.	w_świe-	1d	.	w_świe-	1f	.	w_świe-
1GG	.	w_świe-	1G	.	.	4B/	.	.	1d	.	-cie
.	.	.	.	.	.	4A/	.	.	.	.	.
.	.	.	.	.	.	1d	.	.	.	.	.
*	*	*	*Xlig	*	*	*	*	*	*	*	*
=38-	=38-	=38-	=38-	=38-	=38-	=38-	=38-	=38-	=38-	=38-	=38-
*	*	*	*lig	*	*	*	*	*	*	*	*
1C	.	-cie	1E	.	-cie	.	.	.	1g	.	nie
.	.	.	.	.	.	2c/	.	.	.	.	.
1BB	.	nie	1D	.	.	1d	.	-cie	1f	.	.
*	*	*	*Xlig	*	*	*	*	*	*	*	*
=39-	=39-	=39-	=39-	=39-	=39-	=39-	=39-	=39-	=39-	=39-	=39-
2AA/	.	.	1E	.	nie	2c/	.	nie	1e	.	.
2C/	.	jest	.	.	.	2G/	.	jest	.	.	.
2D/	.	ta-	1F	.	jest	2A/	.	ta-	2d/	.	jest
2BB/	.	.	.	.	.	4F/	.	.	1d	.	ta-
.	.	.	.	.	.	4G/	.	.	.	.	.
=40-	=40-	=40-	=40-	=40-	=40-	=40-	=40-	=40-	=40-	=40-	=40-
1AA	.	.	1E	.	ta-	1A	.	.	.	.	.
!	!	!	!	!	!	!	!	!	!LO:SIC:s=2c#i	!	!
.	.	.	.	.	.	.	.	.	2c/	.	.
*	*	*	*	*	*	*lig	*	*	*	*	*
[1Dl	.	-kie.	[1Dl	.	-kie.	1A	.	-kie.	[1dl	.	-kie.
=41-	=41-	=41-	=41-	=41-	=41-	=41-	=41-	=41-	=41-	=41-	=41-
!LO:SIC:s=0D;]	!	!	!LO:SIC:s=0D;]	!	!	!LO:SIC:s=0F;	!	!	!LO:SIC:s=0d;]	!	!
0D]	.	.	0D]	.	.	0Fl\	.	.	0d]	.	.
*	*	*	*	*	*	*Xlig	*	*	*	*	*
==	==	==	==	==	==	==	==	==	==	==	==
*-	*-	*-	*-	*-	*-	*-	*-	*-	*-	*-	*-
!!!system-decoration: [(*)]
!!LO:MO:ori
!!!RDF**kern: l = terminal long
!!LO:MO:mod
!! !!!RDF**kern: i = editorial accidental
!!LO:MO:end
!!!filter-modern: shed -e "s/TX(.*):t=P:/tx$1:t=P:/LG" | shed -e "s/^custos:/Xcustos:/I" | sic -sq | modori -m | autostem -r | tie -s | humtr -p | shed -e "s/-//B" | shed -e "s/yy//"
!!!ENC: Berenika Jozajtis
!!!END: 2022-04-30
!!!ENC: Andrzej Kubiczek
!!!END: 2022-05-07
!!!ENC-modern: Andrzej Kubiczek
!!!END-modern: 2022-07-22
!!!ENC-iiif: Emilia Ziętek
!!!END-iiif: 2022-09-02
!!!YEC: Copyright 2022 Narodowy Instytut Fryderyka Chopina (https://polishscores.org)
!!!YEM: License CC-BY-4.0 (https://creativecommons.org/licenses/by/4.0)
